wasmegg/rockets-tracker/src/badges/badge-4.svg

<svg xmlns="http://www.w3.org/2000/svg" xml:space="preserve" style="fill-rule:evenodd;clip-rule:evenodd;stroke-linejoin:round;stroke-miterlimit:2" viewBox="0 0 64 64"><path d="M.247-.484c-.013 0-.025.011-.025.024v.116H.218l-.024.001H.145L.074-.346q0-.089.004-.176c.004-.064.01-.128.005-.192L.081-.733C.08-.747.071-.758.057-.758c-.012 0-.026.011-.025.025.007.063.002.128-.002.192q-.005.098-.005.195v.024c0 .013.011.024.024.024l.098.004q.038.001.075-.002v.131q-.004.047-.005.094a.3.3 0 0 0 .004.058c.002.013.018.02.03.017C.265 0 .27-.013.268-.026v-.003L.267-.032.266-.043v-.024l.001-.047q.004-.048.004-.094V-.46a.024.024 0 0 0-.024-.024" style="fill:#fff;fill-rule:nonzero" transform="matrix(56 0 0 56 23.712 53.093)"/></svg>

<?xml version="1.0" encoding="UTF-8" standalone="no"?>
<!DOCTYPE svg PUBLIC "-//W3C//DTD SVG 1.1//EN" "http://www.w3.org/Graphics/SVG/1.1/DTD/svg11.dtd">
<svg width="100%" height="100%" viewBox="0 0 64 64" version="1.1" xmlns="http://www.w3.org/2000/svg" xmlns:xlink="http://www.w3.org/1999/xlink" xml:space="preserve" xmlns:serif="http://www.serif.com/" style="fill-rule:evenodd;clip-rule:evenodd;stroke-linejoin:round;stroke-miterlimit:2;">
    <g transform="matrix(1,0,0,1,-7.09409,22.0804)">
        <g transform="matrix(56,0,0,56,30.8061,31.0123)">
            <path d="M0.247,-0.484C0.234,-0.484 0.222,-0.473 0.222,-0.46L0.222,-0.344L0.218,-0.344C0.21,-0.343 0.202,-0.343 0.194,-0.343C0.177,-0.342 0.161,-0.343 0.145,-0.343C0.122,-0.344 0.098,-0.345 0.074,-0.346C0.074,-0.405 0.075,-0.464 0.078,-0.522C0.082,-0.586 0.088,-0.65 0.083,-0.714C0.083,-0.721 0.082,-0.727 0.081,-0.733C0.08,-0.747 0.071,-0.758 0.057,-0.758C0.045,-0.758 0.031,-0.747 0.032,-0.733C0.039,-0.67 0.034,-0.605 0.03,-0.541C0.026,-0.476 0.025,-0.411 0.025,-0.346L0.025,-0.322C0.025,-0.309 0.036,-0.298 0.049,-0.298C0.082,-0.297 0.115,-0.295 0.147,-0.294C0.172,-0.293 0.197,-0.294 0.222,-0.296L0.222,-0.262C0.222,-0.229 0.223,-0.197 0.222,-0.165C0.22,-0.134 0.217,-0.102 0.217,-0.071C0.216,-0.052 0.218,-0.032 0.221,-0.013C0.223,-0 0.239,0.007 0.251,0.004C0.265,-0 0.27,-0.013 0.268,-0.026L0.268,-0.029C0.268,-0.03 0.267,-0.031 0.267,-0.032C0.267,-0.036 0.267,-0.04 0.266,-0.043L0.266,-0.067C0.266,-0.083 0.266,-0.099 0.267,-0.114C0.269,-0.146 0.271,-0.177 0.271,-0.208L0.271,-0.46C0.271,-0.473 0.26,-0.484 0.247,-0.484Z" style="fill:white;fill-rule:nonzero;"/>
        </g>
    </g>
</svg>
